allergy.svg

<svg fill="currentColor" viewBox="0 0 24 24"><path d="M19.75 5.33a1.25 1.25 0 0 0-1.25 1.25v4.59h-.83V4.08a1.25 1.25 0 0 0-2.5 0v7.09h-.84V3.25a1.25 1.25 0 1 0-2.5 0v7.92H11V5.33a1.25 1.25 0 0 0-2.5 0v9.93l-3.59-2a1 1 0 0 0-.5-.14 1 1 0 0 0-.66.25l-1.08 1L9.21 21a3.3 3.3 0 0 0 2.37 1h6.09A3.33 3.33 0 0 0 21 18.67V6.58a1.25 1.25 0 0 0-1.25-1.25M11 15a1 1 0 1 1 1-1 1 1 0 0 1-1 1m2 3a1 1 0 1 1 1-1 1 1 0 0 1-1 1m5-2a1 1 0 1 1 1-1 1 1 0 0 1-1 1m-1 3a1 1 0 1 1 1-1 1 1 0 0 1-1 1m-2-4a1 1 0 1 1 1-1 1 1 0 0 1-1 1"/></svg>

<svg  viewBox="0 0 24 24" fill="currentColor"><path  d="M19.75 5.33A1.25 1.25 0 0 0 18.5 6.58V11.17H17.67V4.08A1.25 1.25 0 0 0 15.17 4.08V11.17H14.33V3.25A1.25 1.25 0 1 0 11.83 3.25V11.17H11V5.33A1.25 1.25 0 0 0 8.5 5.33V15.26L4.91 13.26A1 1 0 0 0 4.41 13.12A1 1 0 0 0 3.75 13.37L2.67 14.37L9.21 21A3.29 3.29 0 0 0 11.58 22H17.67A3.33 3.33 0 0 0 21 18.67V6.58A1.25 1.25 0 0 0 19.75 5.33M11 15A1 1 0 1 1 12 14A1 1 0 0 1 11 15M13 18A1 1 0 1 1 14 17A1 1 0 0 1 13 18M18 16A1 1 0 1 1 19 15A1 1 0 0 1 18 16M17 19A1 1 0 1 1 18 18A1 1 0 0 1 17 19M15 15A1 1 0 1 1 16 14A1 1 0 0 1 15 15Z"/></svg>
